assets/svg/img_send.svg

<svg width="24" height="23" viewBox="0 0 24 23" fill="none" xmlns="http://www.w3.org/2000/svg">
<path d="M20.9476 9.91738L5.11182 1.69105C4.84537 1.55265 4.53973 1.49298 4.23574 1.52003C3.93176 1.54707 3.64392 1.65954 3.41068 1.84239C3.17744 2.02525 3.00992 2.26979 2.93051 2.54332C2.8511 2.81686 2.86358 3.10636 2.96628 3.37314L5.6854 10.4358H12.7497C12.9486 10.4358 13.1394 10.5091 13.28 10.6396C13.4207 10.77 13.4997 10.947 13.4997 11.1315C13.4997 11.316 13.4207 11.493 13.28 11.6235C13.1394 11.7539 12.9486 11.8272 12.7497 11.8272H5.6854L2.96628 18.8899C2.88589 19.0998 2.86089 19.3246 2.89335 19.5453C2.92581 19.7661 3.0148 19.9764 3.15287 20.1587C3.29094 20.341 3.47407 20.49 3.68693 20.5931C3.8998 20.6963 4.13621 20.7507 4.37637 20.7517C4.6341 20.7512 4.88738 20.6894 5.11191 20.572L20.9475 12.3457C21.1802 12.2248 21.3739 12.0486 21.5087 11.8352C21.6435 11.6218 21.7146 11.3789 21.7146 11.1315C21.7146 10.8842 21.6436 10.6413 21.5088 10.4279C21.3739 10.2145 21.1802 10.0383 20.9476 9.91738Z" fill="#222222"/>
</svg>

<svg xmlns="http://www.w3.org/2000/svg" width="24" height="23" fill="none" viewBox="0 0 24 23"><path fill="#222" d="M20.948 9.917 5.112 1.691a1.598 1.598 0 0 0-1.701.151 1.38 1.38 0 0 0-.48.701c-.08.274-.067.563.035.83l2.72 7.063h7.064a.78.78 0 0 1 .53.204c.14.13.22.307.22.492a.671.671 0 0 1-.22.492.78.78 0 0 1-.53.203H5.685L2.966 18.89a1.3 1.3 0 0 0-.073.655c.033.221.122.431.26.614.138.182.321.331.534.434a1.598 1.598 0 0 0 1.425-.021l15.836-8.226c.232-.121.426-.297.56-.51a1.31 1.31 0 0 0 .001-1.408 1.455 1.455 0 0 0-.561-.51Z"/></svg>
